src/assets/images/welcome.svg

<svg width="162" height="143" viewBox="0 0 162 143" fill="none" xmlns="http://www.w3.org/2000/svg">
<path d="M89.0445 9.27774C89.0445 9.27774 75.6523 39.3359 40.2362 32.4501C4.82009 25.5643 -16.518 74.0088 16.9649 91.6727C50.4478 109.337 27.2433 129.628 49.5741 139.993C74.9547 151.773 84.4191 112.382 103.117 116.041C144.385 124.115 169.911 110.267 158.624 91.6314C138.811 58.9188 124.424 60.1231 130.27 38.9982C136.117 17.8733 103.1 -14.557 89.0445 9.27774Z" fill="#E7E7F0"/>
<path d="M82.58 77.8817C79.4681 83.8455 78.683 87.0151 69.2435 92.9328C69.1702 92.9806 69.1153 93.0518 69.0876 93.1349C67.5796 97.8101 65.0267 102.081 61.6227 105.623C61.5769 105.67 61.5447 105.728 61.5294 105.792C61.5142 105.857 61.5165 105.923 61.5361 105.986C62.5926 109.502 63.7361 115.841 60.5546 121.037C55.8782 128.687 52.4146 124.068 53.1359 122.336C53.7536 120.853 59.0305 117.666 57.8123 109.704C57.8021 109.641 57.7756 109.581 57.7355 109.53C57.6954 109.48 57.6429 109.44 57.5831 109.416C57.5234 109.392 57.4584 109.383 57.3944 109.391C57.3304 109.399 57.2695 109.424 57.2176 109.462C53.3928 112.238 49.0028 114.136 44.3604 115.022C44.3089 115.03 44.2597 115.05 44.2162 115.079C44.1727 115.107 44.1358 115.145 44.108 115.189C44.0801 115.234 44.062 115.283 44.0547 115.335C44.0475 115.387 44.0513 115.439 44.0659 115.49C45.2495 119.727 45.8095 126.35 40.8675 132.44C38.2291 135.615 34.7304 130.974 38.2291 127.81C40.3998 125.853 40.2324 120.224 39.2164 115.888C39.1969 115.804 39.1489 115.729 39.0804 115.677C39.012 115.624 38.9274 115.597 38.841 115.6C38.639 115.605 38.431 115.605 38.2291 115.605C31.0881 115.616 24.1455 113.256 18.49 108.896C18.4383 108.856 18.3769 108.829 18.312 108.82C18.247 108.81 18.1807 108.818 18.1195 108.842C18.0584 108.866 18.0045 108.905 17.9632 108.956C17.9218 109.007 17.8945 109.068 17.8838 109.133C16.527 118.093 21.9138 121.193 22.6814 123.491C23.5359 126.06 21.5729 128.346 19.1539 127.7C19.1015 127.684 19.0525 127.659 19.0096 127.625C11.1232 121.701 11.8102 109.289 12.6762 103.313C12.6842 103.264 12.6816 103.214 12.6686 103.167C12.6557 103.119 12.6327 103.074 12.6011 103.036C8.19091 97.3609 5.80329 90.3748 5.81745 83.1874C5.81745 70.0068 13.6865 58.6621 24.985 53.5989C24.9858 53.5989 24.9866 53.5988 24.9873 53.5985C24.988 53.5982 24.9886 53.5978 24.9892 53.5973C24.9897 53.5967 24.9901 53.5961 24.9904 53.5954C24.9907 53.5947 24.9909 53.5939 24.9908 53.5932C26.7285 51.3932 28.8474 48.2817 29.1708 46.0994C29.1815 46.0254 29.214 45.9563 29.2641 45.901C29.3142 45.8456 29.3797 45.8064 29.4522 45.7884C29.5247 45.7704 29.6009 45.7745 29.6711 45.8C29.7413 45.8256 29.8023 45.8715 29.8462 45.9319C30.6776 47.0519 31.9651 49.1881 31.6822 51.4397C31.6706 51.5147 31.6649 51.5897 31.6533 51.6648C31.6302 51.7919 31.6014 51.9131 31.5725 52.0401C31.5436 52.1383 31.5205 52.2364 31.4859 52.3346C31.8897 51.9976 32.275 51.6392 32.64 51.2607C33.4886 50.389 34.5625 49.0784 35.0244 47.6755C35.0463 47.6006 35.0908 47.5344 35.1518 47.4859C35.2129 47.4374 35.2875 47.409 35.3653 47.4046C35.4432 47.4002 35.5205 47.42 35.5866 47.4614C35.6527 47.5027 35.7043 47.5635 35.7344 47.6355C36.0344 48.3745 36.3868 49.4079 36.508 50.4644C36.5185 50.5591 36.5639 50.6466 36.6355 50.7096C36.707 50.7726 36.7995 50.8066 36.8948 50.805C37.3394 50.7877 37.7839 50.7762 38.2285 50.7762C56.1316 50.7762 70.6459 65.2904 70.6459 83.1878C70.6459 83.5978 70.6401 84.0018 70.6227 84.4059C70.6202 84.4676 70.6327 84.529 70.6593 84.5847C70.6858 84.6405 70.7255 84.6889 70.775 84.7259C70.8244 84.7629 70.8822 84.7872 70.9432 84.7968C71.0042 84.8065 71.0666 84.8011 71.125 84.7812C73.0533 84.1057 75.4839 82.4776 76.9503 78.6037C79.6927 71.387 79.9814 69.3664 79.1154 63.7373C78.2494 58.1082 82.4354 58.3973 83.301 60.2733C84.1666 62.1493 86.0437 71.2423 82.58 77.8817Z" fill="#1B1B1E"/>
<path d="M25.5674 86.0309C25.457 86.0308 25.3498 85.9942 25.2624 85.9267C25.175 85.8592 25.1124 85.7647 25.0843 85.6579C24.8666 84.7071 24.8199 83.7251 24.9462 82.7579C25.2305 80.6557 26.3745 79.1105 28.2546 78.2893C29.4832 77.7526 30.6446 77.7216 31.7064 78.1976C33.8827 79.173 34.8092 81.9387 34.8476 82.0559C34.8849 82.1808 34.8719 82.3152 34.8114 82.4307C34.751 82.5461 34.6479 82.6334 34.5241 82.6739C34.4003 82.7145 34.2655 82.7051 34.1485 82.6478C34.0315 82.5904 33.9415 82.4897 33.8976 82.367C33.8897 82.343 33.0656 79.8997 31.2944 79.1086C30.5014 78.7545 29.6135 78.7871 28.6552 79.2057C27.0995 79.8857 26.1865 81.1157 25.9417 82.8621C25.8299 83.7098 25.8673 84.5705 26.0523 85.4052C26.0856 85.5336 26.0666 85.6699 25.9995 85.7843C25.9324 85.8986 25.8226 85.9817 25.6943 86.0152C25.6529 86.0258 25.6102 86.0311 25.5674 86.0309Z" fill="white"/>
<path d="M40.64 81.4518C40.5352 81.4518 40.4331 81.4188 40.3481 81.3576C40.2631 81.2963 40.1994 81.21 40.1662 81.1106C39.8871 80.18 39.7767 79.2069 39.8402 78.2374C39.9877 76.1299 41.0293 74.52 42.8524 73.5818C44.046 72.9678 45.2046 72.8618 46.2967 73.2689C48.5267 74.0989 49.6289 76.781 49.6747 76.8947C49.7227 77.0174 49.7204 77.1541 49.6683 77.2751C49.6161 77.3961 49.5182 77.4917 49.396 77.5409C49.2738 77.5901 49.137 77.5892 49.0155 77.5381C48.894 77.4871 48.7976 77.3902 48.7472 77.2684C48.7372 77.2451 47.7593 74.8776 45.9441 74.2047C45.1277 73.9019 44.2417 73.9915 43.3101 74.4711C41.802 75.2471 40.971 76.5275 40.8401 78.2772C40.7836 79.1259 40.8766 79.9778 41.115 80.7942C41.1398 80.8694 41.1464 80.9494 41.1343 81.0276C41.1222 81.1058 41.0918 81.1801 41.0454 81.2442C40.9991 81.3084 40.9382 81.3607 40.8678 81.3968C40.7973 81.4329 40.7193 81.4517 40.6402 81.4518H40.64Z" fill="white"/>
<path d="M39.3676 91.9127C35.9645 91.9127 33.3697 89.6477 33.2398 89.5327C33.1907 89.4891 33.1507 89.4363 33.122 89.3772C33.0933 89.3181 33.0765 89.254 33.0727 89.1884C33.0688 89.1229 33.0778 89.0572 33.0993 88.9952C33.1208 88.9331 33.1543 88.8759 33.1979 88.8268C33.2415 88.7777 33.2943 88.7377 33.3534 88.709C33.4125 88.6803 33.4766 88.6636 33.5422 88.6597C33.6077 88.6558 33.6734 88.6648 33.7354 88.6863C33.7975 88.7078 33.8547 88.7413 33.9038 88.7849C33.9379 88.8149 37.3645 91.7932 41.2225 90.6432C45.0625 89.499 46.1156 84.6232 46.1259 84.5742C46.1539 84.4456 46.2315 84.3333 46.3419 84.2615C46.4522 84.1898 46.5864 84.1644 46.7153 84.1909C46.8442 84.2175 46.9574 84.2938 47.0304 84.4032C47.1035 84.5127 47.1304 84.6466 47.1053 84.7758C46.8676 85.7858 46.4952 86.7592 45.9982 87.6699C44.9004 89.6938 43.3482 91.0534 41.5082 91.6016C40.8136 91.8087 40.0925 91.9135 39.3676 91.9127Z" fill="white"/>
<path fill-rule="evenodd" clip-rule="evenodd" d="M110.836 33.9134C109.509 33.1805 107.918 34.1956 107.968 35.711L108.249 44.2308C102.996 46.8046 98.6298 51.0513 95.9487 56.3967C93.7432 54.0702 89.7667 48.7289 90.0152 42.2702C90.2567 37.8227 87.9452 36.4679 85.8279 38.0757C83.7315 39.6635 83.0927 53.9852 94.029 61.4122C93.7888 62.3094 93.5856 63.2294 93.4319 64.1694C91.0211 78.9152 101.022 92.8174 115.762 95.2269C130.508 97.6377 144.409 87.6426 146.819 72.8969C146.997 71.8249 147.107 70.743 147.15 69.6574C158.631 63.9116 161.422 55.4234 161.519 51.9347C161.531 51.495 161.437 51.059 161.245 50.6633C161.053 50.2675 160.769 49.9235 160.417 49.6602C158.868 48.506 157.669 49.2577 156.991 49.966C156.63 50.3566 156.422 50.8651 156.406 51.3972C156.384 51.9668 156.264 52.9125 155.831 54.199C152.735 60.6542 148.912 62.9251 146.747 63.712C146.087 60.0644 144.684 56.63 142.678 53.6014L147.293 46.2811C148.102 44.9984 147.242 43.319 145.726 43.2811C140.982 43.1624 137.127 43.5635 133.019 44.7471C130.429 43.3429 127.562 42.3414 124.489 41.8392C123.307 41.6459 122.131 41.5325 120.965 41.4949C118.046 38.4496 114.945 36.182 110.836 33.9134Z" fill="#699CFF"/>
<path fill-rule="evenodd" clip-rule="evenodd" d="M110.836 33.9134C109.509 33.1805 107.918 34.1956 107.968 35.711L108.249 44.2308C102.996 46.8046 98.6298 51.0513 95.9487 56.3967C93.7432 54.0702 89.7667 48.7289 90.0152 42.2702C90.2567 37.8227 87.9452 36.4679 85.8279 38.0757C83.7315 39.6635 83.0927 53.9852 94.029 61.4122C93.7888 62.3094 93.5856 63.2294 93.4319 64.1694C91.0211 78.9152 101.022 92.8174 115.762 95.2269C130.508 97.6377 144.409 87.6426 146.819 72.8969C146.997 71.8249 147.107 70.743 147.15 69.6574C158.631 63.9116 161.422 55.4234 161.519 51.9347C161.531 51.495 161.437 51.059 161.245 50.6633C161.053 50.2675 160.769 49.9235 160.417 49.6602C158.868 48.506 157.669 49.2577 156.991 49.966C156.63 50.3566 156.422 50.8651 156.406 51.3972C156.384 51.9668 156.264 52.9125 155.831 54.199C152.735 60.6542 148.912 62.9251 146.747 63.712C146.087 60.0644 144.684 56.63 142.678 53.6014L147.293 46.2811C148.102 44.9984 147.242 43.319 145.726 43.2811C140.982 43.1624 137.127 43.5635 133.019 44.7471C130.429 43.3429 127.562 42.3414 124.489 41.8392C123.307 41.6459 122.131 41.5325 120.965 41.4949C118.046 38.4496 114.945 36.182 110.836 33.9134Z" fill="url(#paint0_linear_1290_27434)"/>
<path d="M131.064 74.4401C130.381 78.6166 124.637 81.1525 118.239 80.1066C111.834 79.0597 107.197 74.8266 107.88 70.6503C108.01 69.8726 108.314 69.1342 108.769 68.4903C108.893 68.316 109.08 68.196 109.29 68.1551C109.5 68.1141 109.718 68.1554 109.899 68.2703C112.191 69.7056 115.82 70.9713 120.006 71.6557C123.859 72.2857 127.425 72.2951 130.02 71.8028C130.231 71.7623 130.45 71.8046 130.631 71.921C130.812 72.0374 130.941 72.2189 130.992 72.428C131.148 73.0874 131.172 73.7712 131.064 74.4401Z" fill="white"/>
<path d="M118.922 66.1535C118.85 66.1536 118.778 66.1379 118.712 66.1076C118.646 66.0772 118.588 66.0328 118.541 65.9776C118.494 65.9223 118.459 65.8575 118.44 65.7876C118.42 65.7177 118.416 65.6444 118.428 65.5728C118.596 64.5462 118.349 63.4949 117.742 62.6503C117.134 61.8056 116.217 61.2368 115.19 61.069C114.163 60.9012 113.112 61.1481 112.267 61.7554C111.423 62.3627 110.854 63.2807 110.686 64.3073C110.665 64.4382 110.592 64.5552 110.484 64.6326C110.377 64.71 110.243 64.7415 110.112 64.7201C109.981 64.6987 109.864 64.6262 109.787 64.5185C109.709 64.4108 109.678 64.2768 109.699 64.1459C109.91 62.8575 110.624 61.7055 111.684 60.9434C112.744 60.1813 114.063 59.8715 115.351 60.0821C116.64 60.2927 117.792 61.0065 118.554 62.0665C119.316 63.1264 119.626 64.4457 119.415 65.7341C119.396 65.8511 119.336 65.9575 119.246 66.0343C119.155 66.1111 119.041 66.1534 118.922 66.1535Z" fill="white"/>
<path d="M130.916 68.114C130.844 68.1139 130.772 68.0981 130.707 68.0676C130.641 68.0372 130.582 67.9928 130.535 67.9376C130.488 67.8824 130.454 67.8176 130.435 67.7478C130.415 67.678 130.411 67.6047 130.422 67.5332C130.586 66.5084 130.337 65.4605 129.73 64.619C129.122 63.7775 128.206 63.211 127.182 63.0436C126.158 62.8762 125.109 63.1215 124.265 63.7258C123.422 64.3301 122.852 65.2441 122.68 66.2677C122.67 66.3326 122.647 66.3949 122.612 66.4509C122.578 66.507 122.533 66.5556 122.479 66.5941C122.426 66.6326 122.366 66.6602 122.301 66.6753C122.237 66.6904 122.171 66.6927 122.106 66.6821C122.041 66.6715 121.979 66.6481 121.923 66.6134C121.867 66.5787 121.819 66.5333 121.78 66.4799C121.742 66.4264 121.715 66.3659 121.7 66.3018C121.685 66.2377 121.683 66.1713 121.694 66.1064C121.908 64.8212 122.623 63.6735 123.682 62.9145C124.741 62.1556 126.057 61.8475 127.343 62.0577C128.629 62.2678 129.779 62.9792 130.541 64.0358C131.303 65.0924 131.616 66.4081 131.409 67.6946C131.39 67.8116 131.33 67.918 131.24 67.9948C131.15 68.0716 131.035 68.1138 130.916 68.114Z" fill="white"/>
<defs>
<linearGradient id="paint0_linear_1290_27434" x1="124.096" y1="45.6172" x2="124.096" y2="97.4895" gradientUnits="userSpaceOnUse">
<stop stop-color="#6A26F9"/>
<stop offset="1" stop-color="#8850FF"/>
</linearGradient>
</defs>
</svg>

<svg xmlns="http://www.w3.org/2000/svg" width="162" height="143" fill="none"><path fill="#E7E7F0" d="M89.044 9.278S75.653 39.336 40.236 32.45C4.82 25.564-16.518 74.01 16.965 91.673s10.278 37.955 32.61 48.32c25.38 11.78 34.844-27.611 53.542-23.952 41.268 8.074 66.794-5.774 55.507-24.41-19.813-32.712-34.2-31.508-28.354-52.633 5.847-21.125-27.17-53.555-41.226-29.72Z"/><path fill="#1B1B1E" d="M82.58 77.882c-3.112 5.963-3.897 9.133-13.337 15.05a.387.387 0 0 0-.155.203 32.358 32.358 0 0 1-7.465 12.488.362.362 0 0 0-.087.363c1.057 3.516 2.2 9.855-.981 15.051-4.677 7.65-8.14 3.031-7.42 1.299.619-1.483 5.896-4.67 4.677-12.632a.38.38 0 0 0-.229-.288.38.38 0 0 0-.365.046 32.148 32.148 0 0 1-12.858 5.56.36.36 0 0 0-.144.057.358.358 0 0 0-.161.256.373.373 0 0 0 .01.155c1.184 4.237 1.745 10.86-3.197 16.95-2.639 3.175-6.138-1.466-2.639-4.63 2.17-1.957 2.003-7.586.987-11.922a.37.37 0 0 0-.375-.288c-.202.005-.41.005-.612.005a32.249 32.249 0 0 1-19.739-6.709.377.377 0 0 0-.527.06.378.378 0 0 0-.08.177c-1.356 8.96 4.03 12.06 4.798 14.358.855 2.569-1.108 4.855-3.527 4.209a.437.437 0 0 1-.144-.075c-7.887-5.924-7.2-18.336-6.334-24.312a.342.342 0 0 0-.075-.277 32.244 32.244 0 0 1-6.784-19.849c0-13.18 7.87-24.525 19.168-29.588a.006.006 0 0 0 .004-.002l.001-.002v-.002c1.739-2.2 3.857-5.311 4.18-7.494a.376.376 0 0 1 .676-.167c.832 1.12 2.12 3.256 1.836 5.508-.011.075-.017.15-.029.225-.023.127-.052.248-.08.375-.03.098-.053.196-.087.295.404-.337.789-.696 1.154-1.074.849-.872 1.922-2.183 2.384-3.586a.378.378 0 0 1 .71-.04c.3.74.653 1.773.774 2.83a.383.383 0 0 0 .387.34 34.3 34.3 0 0 1 1.333-.029c17.904 0 32.418 14.514 32.418 32.412 0 .41-.006.814-.023 1.218a.38.38 0 0 0 .502.375c1.928-.675 4.359-2.303 5.825-6.177 2.743-7.217 3.031-9.238 2.165-14.867-.866-5.629 3.32-5.34 4.186-3.464.866 1.876 2.743 10.97-.721 17.609Z"/><path fill="#fff" d="M25.567 86.03a.5.5 0 0 1-.483-.372 8.223 8.223 0 0 1-.138-2.9c.284-2.102 1.428-3.647 3.309-4.469 1.228-.536 2.39-.567 3.451-.091 2.177.975 3.103 3.74 3.142 3.858a.5.5 0 0 1-.95.311c-.008-.024-.832-2.467-2.604-3.258-.793-.355-1.68-.322-2.639.097-1.556.68-2.469 1.91-2.713 3.656a7.326 7.326 0 0 0 .11 2.543.5.5 0 0 1-.485.626ZM40.64 81.452a.5.5 0 0 1-.474-.341 8.148 8.148 0 0 1-.326-2.874c.148-2.107 1.19-3.717 3.012-4.655 1.194-.614 2.353-.72 3.445-.313 2.23.83 3.332 3.512 3.378 3.626a.5.5 0 0 1-.928.373c-.01-.023-.988-2.39-2.803-3.063-.816-.303-1.702-.213-2.634.266-1.508.776-2.339 2.056-2.47 3.806-.056.849.037 1.7.275 2.517a.5.5 0 0 1-.475.658ZM39.368 91.913c-3.404 0-5.998-2.265-6.128-2.38a.5.5 0 0 1 .664-.748c.034.03 3.46 3.008 7.318 1.858 3.84-1.144 4.894-6.02 4.904-6.069a.5.5 0 0 1 .98.202 11.579 11.579 0 0 1-1.108 2.894c-1.098 2.024-2.65 3.383-4.49 3.932a7.463 7.463 0 0 1-2.14.31Z"/><path fill="#699CFF" fill-rule="evenodd" d="M110.836 33.913c-1.327-.732-2.918.283-2.868 1.798l.281 8.52a27.108 27.108 0 0 0-12.3 12.166c-2.206-2.327-6.182-7.668-5.934-14.127.242-4.447-2.07-5.802-4.187-4.194-2.097 1.587-2.735 15.91 8.201 23.336a28.36 28.36 0 0 0-.597 2.757c-2.41 14.746 7.59 28.648 22.33 31.058 14.746 2.41 28.647-7.584 31.057-22.33.178-1.072.288-2.154.331-3.24 11.481-5.745 14.272-14.234 14.369-17.722a2.74 2.74 0 0 0-1.102-2.275c-1.549-1.154-2.748-.402-3.426.306-.361.39-.569.9-.585 1.431-.022.57-.142 1.516-.575 2.802-3.096 6.455-6.919 8.726-9.084 9.513a27.033 27.033 0 0 0-4.069-10.11l4.615-7.32c.809-1.284-.051-2.963-1.567-3-4.744-.12-8.599.282-12.707 1.465a26.999 26.999 0 0 0-8.53-2.908 27.27 27.27 0 0 0-3.524-.344c-2.919-3.045-6.02-5.313-10.129-7.582Z" clip-rule="evenodd"/><path fill="url(#a)" fill-rule="evenodd" d="M110.836 33.913c-1.327-.732-2.918.283-2.868 1.798l.281 8.52a27.108 27.108 0 0 0-12.3 12.166c-2.206-2.327-6.182-7.668-5.934-14.127.242-4.447-2.07-5.802-4.187-4.194-2.097 1.587-2.735 15.91 8.201 23.336a28.36 28.36 0 0 0-.597 2.757c-2.41 14.746 7.59 28.648 22.33 31.058 14.746 2.41 28.647-7.584 31.057-22.33.178-1.072.288-2.154.331-3.24 11.481-5.745 14.272-14.234 14.369-17.722a2.74 2.74 0 0 0-1.102-2.275c-1.549-1.154-2.748-.402-3.426.306-.361.39-.569.9-.585 1.431-.022.57-.142 1.516-.575 2.802-3.096 6.455-6.919 8.726-9.084 9.513a27.033 27.033 0 0 0-4.069-10.11l4.615-7.32c.809-1.284-.051-2.963-1.567-3-4.744-.12-8.599.282-12.707 1.465a26.999 26.999 0 0 0-8.53-2.908 27.27 27.27 0 0 0-3.524-.344c-2.919-3.045-6.02-5.313-10.129-7.582Z" clip-rule="evenodd"/><path fill="#fff" d="M131.064 74.44c-.683 4.177-6.427 6.713-12.825 5.667-6.405-1.047-11.042-5.28-10.359-9.457a5.24 5.24 0 0 1 .889-2.16.836.836 0 0 1 1.13-.22c2.292 1.436 5.921 2.701 10.107 3.386 3.853.63 7.419.64 10.014.147a.838.838 0 0 1 .972.625c.156.66.18 1.343.072 2.012ZM118.922 66.153a.503.503 0 0 1-.482-.365.487.487 0 0 1-.012-.215 3.923 3.923 0 1 0-7.742-1.266.498.498 0 0 1-.574.413.498.498 0 0 1-.413-.574 4.925 4.925 0 0 1 8.855-2.08 4.92 4.92 0 0 1 .861 3.668.5.5 0 0 1-.493.42ZM130.916 68.114a.496.496 0 0 1-.381-.176.502.502 0 0 1-.113-.404 3.922 3.922 0 0 0-7.742-1.266.485.485 0 0 1-.068.183.49.49 0 0 1-.506.231.5.5 0 0 1-.412-.576 4.922 4.922 0 0 1 9.715 1.589.5.5 0 0 1-.493.419Z"/><defs><linearGradient id="a" x1="124.096" x2="124.096" y1="45.617" y2="97.49" gradientUnits="userSpaceOnUse"><stop/><stop offset="1"/></linearGradient></defs></svg>
